X:0554
T:The Royal Boarding School. or 5th. of December
M:C|
L:1/8
Q:1/2=104
I: :: ||
Z:Jack Campin * www.campin.me.uk * 2009
K:A
c|Ae/f/ ec A>FEA|Ffec d(BB)c|Ae/f/ ec A>FE>A|Ffed cAA  :|
c|eAcA     aAfA |eAcA d(BB)c|eAcA     aAfA  |ecBd c(AA)c|
  eAcA     aAfA |eAcA d(BB)c|A>cec    d>faf |ecBd cAA  |]

